X: 14723
T: Gan Ainm
R: reel
M: 4/4
K: Bminor
|:B2 AB GFEG|FB,B,/B,/B, AGFE|DEFD EDCE|B,FF/F/F GFAF|
B2 AB GFEG|FB,B,/B,/B, AGFE|DEFD EDCE|D/D/D CDB,2 z2:|
|:fdd/d/d edcd|Bcc/c/c cBAc|BFGE FDCD|C3D EFdc|
A3B E3G|FBdc Bf g2|cdd/d/d cA(F2|F) EFA B2 z2:|

